X: 16980
T: Hazy Day, The
R: reel
M: 4/4
K: Bminor
B2 cA BB ce|f2 af fe cd|eA A/A/A aA A/A/A|ef ed cd ec|
B2 cA BB ce|f2 af fe cd|eA A/A/A aA A/A/A|Gd dc B4:|
|:f2 ef- fc de|a2 ag af ed|ce eA A/A/A AB|c2 cd eA dc|
f2 ef- fc de|a2 ag af ed|eA A/A/A aA A/A/A|Gd dc B4:|
|:BABc d2 de|fBaB faBa|c2 cB Ace (A|ce) Ace Adc|
BABc dB fB|fa Bfa Bfa|eA A/A/A aA A/A/A|Gd dc B4:|
|:Bg- ge f3 e|d2 cd eA A/A/A|cBcd ceec|d2 cdeA A/A/A|
Bg- ge f3 e|d2 cd eA A/A/A|eA A/A/A gA A/A/A|efed cdeA:|

